icon-themes/elementary_svg/cmd/sc_dbviewfunctions.svg

<svg viewBox="0 0 16 16" xmlns="http://www.w3.org/2000/svg" xmlns:xlink="http://www.w3.org/1999/xlink"><linearGradient id="a"><stop offset="0" stop-color="#737373"/><stop offset=".262" stop-color="#636363"/><stop offset=".705" stop-color="#4b4b4b"/><stop offset="1" stop-color="#3f3f3f"/></linearGradient><linearGradient id="b" gradientUnits="userSpaceOnUse" x1="2.396" x2="2.541" xlink:href="#a" y1="-1.75" y2="13.676"/><linearGradient id="c" gradientUnits="userSpaceOnUse" x1="13.506" x2="13.273" xlink:href="#a" y1="6.119" y2="14.525"/>/&amp;gt;<g stroke="#000" stroke-linejoin="round" stroke-opacity=".49"><path d="m6.625 6.134h-2.208v7.435h-2.55v-7.436h-1.407v-1.23l1.406-.685v-.687q0-1.598.787-2.333.787-.734 2.517-.734 1.32 0 2.35.393l-.652 1.873q-.77-.243-1.422-.243-.544 0-.786.327-.243.317-.243.82v.585h2.208z" fill="url(#b)" transform="scale(1.00232 .9977)"/><path d="m10.784 10.925-2.154-3.41h2.07l1.3 2.22 1.31-2.22h2.073l-2.18 3.41 2.282 3.56h-2.078l-1.407-2.388-1.413 2.388h-2.072z" fill="url(#c)"/></g></svg>

<svg xmlns="http://www.w3.org/2000/svg" xmlns:xlink="http://www.w3.org/1999/xlink" viewBox="0 0 16 16"><defs><linearGradient id="a"><stop offset="0" stop-color="#737373"/><stop offset=".262" stop-color="#636363"/><stop offset=".705" stop-color="#4b4b4b"/><stop offset="1" stop-color="#3f3f3f"/></linearGradient><linearGradient xlink:href="#a" id="b" x1="2.396" y1="-1.75" x2="2.541" y2="13.676" gradientUnits="userSpaceOnUse"/><linearGradient xlink:href="#a" id="c" x1="13.506" y1="6.119" x2="13.273" y2="14.525" gradientUnits="userSpaceOnUse"/></defs>/&gt;<path d="M6.625 6.134H4.417v7.435h-2.55V6.133H.46v-1.23l1.406-.685v-.687q0-1.598.787-2.333Q3.44.464 5.17.464q1.32 0 2.35.393L6.868 2.73q-.77-.243-1.422-.243-.544 0-.786.327-.243.317-.243.82v.585h2.208z" fill="url(#b)" stroke="#000" stroke-linejoin="round" transform="scale(1.00232 .9977)" stroke-opacity=".49"/><path d="M10.784 10.925L8.63 7.515h2.07l1.3 2.22 1.31-2.22h2.073l-2.18 3.41 2.282 3.56h-2.078L12 12.097l-1.413 2.388H8.515z" fill="url(#c)" stroke="#000" stroke-linejoin="round" stroke-opacity=".49"/></svg>
